X:1
T:Giamai rubasti
T:Gia mi rubast' il core
T:Claudio Saracini
T:Source : Le secondo Misische per cantar e sonar---Venetia---A.Vincenti---1620. Editor : André Vierendeels (30/11/15).
T:Notes : Original clefs : C1, F4 Editorial accidentals above the staff Figures abobe the BC are notated in original print 
C:Claudio Saracini
%%score 1 2
L:1/8
Q:1/4=85
M:4/4
K:F
V:1 treble nm="Soprano" snm="S"
V:2 bass nm="BC" snm="BC"
V:1
 z4 z2 c2 | c2 d2 B2 c2 | d4 d4 | de f4 ed | c4 c4- | c2 cd _e4- | e2 dc B4 | B6 de | f6 _ed | c8 | %10
w: Gia|mi ru- ba- st'il|co- re,|dol- ce la- dra d'A-|mo- re,|_ dol- ce la-|* dra d'A- mo-|re, dol- ce|la- dra d'A-|mo-|
 B8 :: z2 d2 B2 A2 | G2 F2 _E4 | D8 | BA G4 _ec | d4 d4 | z2 f4 d2 | B6 Bc | d8 | c3 c G4 | %20
w: re.|E non ti|fa- ti'an- co-|ra,|ma gio- i- sci ch'io|mo- ra,|O se-|ri- ta mor-|tal|dop- pia se-|
 ^F4 F4 | z2 _e4 c2 | =B6 Bc | d8 | f3 f d4 | ^c4 c4 | f2 cc cc c2 | _e6 dc | d4 c4 | d2 BB BB B2 | %30
w: ri- ta,|O se-|ri- ta mor-|tal|dop- pia se-|ri- ta,|Que- sta mi tol- se'il cor,|que- sta la|vi- ta,|que- sta mi tol- se'il cor,|
 c6 BA | G8 | F8 :| %33
w: que- sta la|vi-|ta.|
V:2
 F,8 | F,2 D,2 _E,2 C,2 | B,,4 B,,4 | B,,3 C, D,2 E,2 | F,4 F,,4 | F,G, _A,4 G,F, | _E,6 D,C, | %7
 B,,8 | B,,2 A,,G,, F,,4 | F,8 | B,,8 :: G,,4 G,2 D,2 | _E,2 B,,2 C,4 | B,,8 | G,D, _E,4 C,F, | %15
 B,,4 B,,4 | B,,8 | _E,6 E,C, | B,,8 | F,4 _E,4 | D,4 D,,4 |"^b" C,8 |"^-natural" G,,6 G,,C, | %23
 B,,8 | D,4 B,,4 |"^#" A,,8 | F,,8 |"^b" C,4 G,,4- | G,,4 C,4 | G,4 G,,4 | A,,2 G,,F,, C,4- | C,8 | %32
 F,,8 :| %33

